X:716
T:Musingsx9
C:Colin Hume, 2019
L:1/4
M:2/2
R:Reel
S:Colin Hume's website,  colinhume.com  - chords can also be printed below the stave.
Q:1/2=100
%%MIDI chordname dim 0 3 6 9
%%MIDI ratio 3 1
%%staffnonote 2
%%staves 1 {2 3}
K:C
P:A
%%text This is not intended for musicians to read -
%%text it's for dancing, played 9 times through with intro and end.
V:1
%%MIDI program 68     Oboe
e>z d>z |: c>B AB/c/ | G>F E2 | c>B A/B/c/e/ | dB/A/ G2 |\
f>e de/f/ | ec-cE |1 FA G>F | G4 :|2 FA c>B | c3 B/A/ || [K: G]
V:2 treble
%%MIDI program 46     Orchestral Harp
z2 [DFB]z |: [EGc]2 [CFA]2 | [DFB]2 [EGc]2 | [EAc]2 [C^FAc]2 | [DGB]3 [CEG] |\
[DFA]3 [DFA] | [CEA]3 [CEA] |1 [DFA]2 [DFA]2 | [DFB]2 [FA][GB] :|2 [DFA]2 [DFB]2 | [EGc]4 ||
V:3 bass octave=-2
%%MIDI program 46     Orchestral Harp
%%MIDI gchordoff
Gz Bz |: "C"c2 "F"f2 | "G7"g2 "C"cB | "Am"A2 "D7"^F2 | "G"G2 Bc |\
"Dm"d2 f2 | "Am"a2 A2 |1 "Dm"DA d2 | "G"Gd g2 :|2 "Dm"D2 "G7"G2 | "C"cg c'C ||
P:B
Q:3/8=112
V:1
L:1/8
M:6/8
R:Jig
Q:3/8=112
K:G
|: G2G B2G | d3 zcB | A2A c2A | e3 zdc |\
B2d GAB | A2c EFG | FGA DEF |1 GBe d BA :|2 G3 z3 |]
V:2
L:1/8
M:6/8
K:G
%%MIDI program 32     Acoustic Bass
|: [B,DG]2[B,DG] z2[B,DG] | z2[B,DG] z2[B,DG] | [CEA]2[CEA] z2[CEA] | z2[CDFA] z2[CDFA] |\
z2[B,DG] z2[B,DG] | z2[CEA] z2[CEA] | z2[CDFA] z2[CDFA] |1 [B,DG]3 [CDFA]z2 :|2 [B,DG]3 [Bdg]3 |]
V:3
L:1/8
M:6/8
K:G
%%MIDI program 32   Acoustic Bass
|: "G"G2z F2z | "/"E2z D2z | "Am"A2z G2z | "D7"F2z D2z |\
"G"G2z d2z | "Am"A2z e2z | "D7"d2z D2z |1 "G"G3 "D7"[Dd]3 :|2 "G"G3 [Gg]3 |]
L:1/4
M:2/2
Q:1/2=100
K:C
P:A
V:1
%%MIDI program 68     Oboe
L:1/4
M:2/2
Q:1/2=100
K:C
|: c>B AB/c/ | G>F E2 | c>B A/B/c/e/ | dB/A/ G2 |\
f>e de/f/ | ec-cE |1 FA G>F | G4 :|2 FA c>B | c3 B/A/ || [K: G]
V:2 treble
%%MIDI program 46     Orchestral Harp
L:1/4
M:2/2
Q:1/2=100
K:C
|: [EGc]2 [CFA]2 | [DFB]2 [EGc]2 | [EAc]2 [C^FAc]2 | [DGB]3 [CEG] |\
[DFA]3 [DFA] | [CEA]3 [CEA] |1 [DFA]2 [DFA]2 | [DFB]2 [FA][GB] :|2 [DFA]2 [DFB]2 | [EGc]4 ||
V:3 bass octave=-2
%%MIDI program 46     Orchestral Harp
L:1/4
M:2/2
Q:1/2=100
K:C
%%MIDI gchordoff
|: "C"c2 "F"f2 | "G7"g2 "C"cB | "Am"A2 "D7"^F2 | "G"G2 Bc |\
"Dm"d2 f2 | "Am"a2 A2 |1 "Dm"DA d2 | "G"Gd g2 :|2 "Dm"D2 "G7"G2 | "C"cg c'C ||
P:B
Q:3/8=112
V:1
L:1/8
M:6/8
Q:3/8=112
K:G
|: G2G B2G | d3 zcB | A2A c2A | e3 zdc |\
B2d GAB | A2c EFG | FGA DEF |1 GBe d BA :|2 G3 z3 |]
V:2
L:1/8
M:6/8
K:G
%%MIDI program 32     Acoustic Bass
|: [B,DG]2[B,DG] z2[B,DG] | z2[B,DG] z2[B,DG] | [CEA]2[CEA] z2[CEA] | z2[CDFA] z2[CDFA] |\
z2[B,DG] z2[B,DG] | z2[CEA] z2[CEA] | z2[CDFA] z2[CDFA] |1 [B,DG]3 [CDFA]z2 :|2 [B,DG]3 [Bdg]3 |]
V:3
L:1/8
M:6/8
K:G
%%MIDI program 32   Acoustic Bass
|: "G"G2z F2z | "/"E2z D2z | "Am"A2z G2z | "D7"F2z D2z |\
"G"G2z d2z | "Am"A2z e2z | "D7"d2z D2z |1 "G"G3 "D7"[Dd]3 :|2 "G"G3 [Gg]3 |]
L:1/4
M:2/2
Q:1/2=100
K:C
P:A
V:1
%%MIDI program 68     Oboe
L:1/4
M:2/2
Q:1/2=100
K:C
|: c>B AB/c/ | G>F E2 | c>B A/B/c/e/ | dB/A/ G2 |\
f>e de/f/ | ec-cE |1 FA G>F | G4 :|2 FA c>B | c3 B/A/ || [K: G]
V:2 treble
%%MIDI program 46     Orchestral Harp
L:1/4
M:2/2
Q:1/2=100
K:C
|: [EGc]2 [CFA]2 | [DFB]2 [EGc]2 | [EAc]2 [C^FAc]2 | [DGB]3 [CEG] |\
[DFA]3 [DFA] | [CEA]3 [CEA] |1 [DFA]2 [DFA]2 | [DFB]2 [FA][GB] :|2 [DFA]2 [DFB]2 | [EGc]4 ||
V:3 bass octave=-2
%%MIDI program 46     Orchestral Harp
L:1/4
M:2/2
Q:1/2=100
K:C
%%MIDI gchordoff
|: "C"c2 "F"f2 | "G7"g2 "C"cB | "Am"A2 "D7"^F2 | "G"G2 Bc |\
"Dm"d2 f2 | "Am"a2 A2 |1 "Dm"DA d2 | "G"Gd g2 :|2 "Dm"D2 "G7"G2 | "C"cg c'C ||
P:B
Q:3/8=112
V:1
L:1/8
M:6/8
Q:3/8=112
K:G
|: G2G B2G | d3 zcB | A2A c2A | e3 zdc |\
B2d GAB | A2c EFG | FGA DEF |1 GBe d BA :|2 G3 z3 |]
V:2
L:1/8
M:6/8
K:G
%%MIDI program 32     Acoustic Bass
|: [B,DG]2[B,DG] z2[B,DG] | z2[B,DG] z2[B,DG] | [CEA]2[CEA] z2[CEA] | z2[CDFA] z2[CDFA] |\
z2[B,DG] z2[B,DG] | z2[CEA] z2[CEA] | z2[CDFA] z2[CDFA] |1 [B,DG]3 [CDFA]z2 :|2 [B,DG]3 [Bdg]3 |]
V:3
L:1/8
M:6/8
K:G
%%MIDI program 32   Acoustic Bass
|: "G"G2z F2z | "/"E2z D2z | "Am"A2z G2z | "D7"F2z D2z |\
"G"G2z d2z | "Am"A2z e2z | "D7"d2z D2z |1 "G"G3 "D7"[Dd]3 :|2 "G"G3 [Gg]3 |]
L:1/4
M:2/2
Q:1/2=100
K:C
P:A
V:1
%%MIDI program 60     French Horn
K:C
L:1/4
M:2/2
Q:1/2=100
|: c>B AB/c/ | G>F E2 | c>B A/B/c/e/ | dB/A/ G2 |\
f>e de/f/ | ec-cE |1 FA G>F | G4 :|2 FA c>B | c3 B/A/ || [K: G]
V:2 treble
%%MIDI program 57     Trombone
K:C
L:1/4
M:2/2
Q:1/2=100
|: !p! [EGc]2 [CFA]2 | [DFB]2 [EGc]2 | [EAc]2 [C^FAc]2 | [DGB]3 [CEG] |\
[DFA]3 [DFA] | [CEA]3 [CEA] |1 [DFA]2 [DFA]2 | [DFB]2 [FA][GB] :|2 [DFA]2 [DFB]2 | [EGc]4 ||
V:3 bass octave=-2
K:C
%%MIDI program 58     Tuba
%%MIDI gchordoff
|: !mp! "C"c2 "F"f2 | "G7"g2 "C"cB | "Am"A2 "D7"^F2 | "G"G2 Bc |\
"Dm"d2 f2 | "Am"a2 A2 |1 "Dm"DA d2 | "G"Gd g2 :|2 "Dm"D2 "G7"G2 | "C"cg c'C ||
P:B
Q:3/8=112
V:1
L:1/8
M:6/8
Q:3/8=112
K:G
|: G2G B2G | d3 zcB | A2A c2A | e3 zdc |\
B2d GAB | A2c EFG | FGA DEF |1 GBe d BA :|2 G3 z3 |]
V:2
L:1/8
M:6/8
K:G
%%MIDI program 45     Pizzicato Strings
|: !mf! [B,DG]2[B,DG] z2[B,DG] | z2[B,DG] z2[B,DG] | [CEA]2[CEA] z2[CEA] | z2[CDFA] z2[CDFA] |\
z2[B,DG] z2[B,DG] | z2[CEA] z2[CEA] | z2[CDFA] z2[CDFA] |1 [B,DG]3 [CDFA]z2 :|2 [B,DG]3 [Bdg]3 |]
V:3
L:1/8
M:6/8
K:G
%%MIDI program 32     Acoustic Bass
|: "G"G2z F2z | "/"E2z D2z | "Am"A2z G2z | "D7"F2z D2z |\
"G"G2z d2z | "Am"A2z e2z | "D7"d2z D2z |1 "G"G3 "D7"[Dd]3 :|2 "G"G3 [Gg]3 |]
L:1/4
M:2/2
Q:1/2=100
K:C
V:1
P:A
L:1/4
M:2/2
Q:1/2=100
K:C
|: c>B AB/c/ | G>F E2 | c>B A/B/c/e/ | dB/A/ G2 |\
f>e de/f/ | ec-cE |1 FA G>F | G4 :|2 FA c>B | c3 B/A/ || [K: G]
V:2 treble
L:1/4
M:2/2
Q:1/2=100
K:C%%MIDI program 57     Trombone
|: !p! [EGc]2 [CFA]2 | [DFB]2 [EGc]2 | [EAc]2 [C^FAc]2 | [DGB]3 [CEG] |\
[DFA]3 [DFA] | [CEA]3 [CEA] |1 [DFA]2 [DFA]2 | [DFB]2 [FA][GB] :|2 [DFA]2 [DFB]2 | [EGc]4 ||
V:3 bass octave=-2
L:1/4
M:2/2
Q:1/2=100
K:C%%MIDI program 58     Tuba
%%MIDI gchordoff
|: !mp! "C"c2 "F"f2 | "G7"g2 "C"cB | "Am"A2 "D7"^F2 | "G"G2 Bc |\
"Dm"d2 f2 | "Am"a2 A2 |1 "Dm"DA d2 | "G"Gd g2 :|2 "Dm"D2 "G7"G2 | "C"cg c'C ||
P:B
Q:3/8=112
V:1
L:1/8
M:6/8
Q:3/8=112
K:G
|: G2G B2G | d3 zcB | A2A c2A | e3 zdc |\
B2d GAB | A2c EFG | FGA DEF |1 GBe d BA :|2 G3 z3 |]
V:2
L:1/8
M:6/8
K:G
%%MIDI program 45     Pizzicato Strings
|: !mf! [B,DG]2[B,DG] z2[B,DG] | z2[B,DG] z2[B,DG] | [CEA]2[CEA] z2[CEA] | z2[CDFA] z2[CDFA] |\
z2[B,DG] z2[B,DG] | z2[CEA] z2[CEA] | z2[CDFA] z2[CDFA] |1 [B,DG]3 [CDFA]z2 :|2 [B,DG]3 [Bdg]3 |]
V:3
L:1/8
M:6/8
K:G
%%MIDI program 32     Acoustic Bass
|: "G"G2z F2z | "/"E2z D2z | "Am"A2z G2z | "D7"F2z D2z |\
"G"G2z d2z | "Am"A2z e2z | "D7"d2z D2z |1 "G"G3 "D7"[Dd]3 :|2 "G"G3 [Gg]3 |]
L:1/4
M:2/2
Q:1/2=100
K:C
P:A
V:1
L:1/4
M:2/2
Q:1/2=100
K:C%%MIDI program 60     French Horn
|: c>B AB/c/ | G>F E2 | c>B A/B/c/e/ | dB/A/ G2 |\
f>e de/f/ | ec-cE |1 FA G>F | G4 :|2 FA c>B | c3 B/A/ || [K: G]
V:2 treble
L:1/4
M:2/2
Q:1/2=100
K:C%%MIDI program 57     Trombone
|: !p! [EGc]2 [CFA]2 | [DFB]2 [EGc]2 | [EAc]2 [C^FAc]2 | [DGB]3 [CEG] |\
[DFA]3 [DFA] | [CEA]3 [CEA] |1 [DFA]2 [DFA]2 | [DFB]2 [FA][GB] :|2 [DFA]2 [DFB]2 | [EGc]4 ||
V:3 bass octave=-2
L:1/4
M:2/2
Q:1/2=100
K:C%%MIDI program 58     Tuba
%%MIDI gchordoff
|: !mp! "C"c2 "F"f2 | "G7"g2 "C"cB | "Am"A2 "D7"^F2 | "G"G2 Bc |\
"Dm"d2 f2 | "Am"a2 A2 |1 "Dm"DA d2 | "G"Gd g2 :|2 "Dm"D2 "G7"G2 | "C"cg c'C ||
P:B
Q:3/8=112
V:1
L:1/8
M:6/8
Q:3/8=112
K:G
|: G2G B2G | d3 zcB | A2A c2A | e3 zdc |\
B2d GAB | A2c EFG | FGA DEF |1 GBe d BA :|2 G3 z3 |]
V:2
L:1/8
M:6/8
K:G
%%MIDI program 45     Pizzicato Strings
|: !mf! [B,DG]2[B,DG] z2[B,DG] | z2[B,DG] z2[B,DG] | [CEA]2[CEA] z2[CEA] | z2[CDFA] z2[CDFA] |\
z2[B,DG] z2[B,DG] | z2[CEA] z2[CEA] | z2[CDFA] z2[CDFA] |1 [B,DG]3 [CDFA]z2 :|2 [B,DG]3 [Bdg]3 |]
V:3
L:1/8
M:6/8
K:G
%%MIDI program 32     Acoustic Bass
|: "G"G2z F2z | "/"E2z D2z | "Am"A2z G2z | "D7"F2z D2z |\
"G"G2z d2z | "Am"A2z e2z | "D7"d2z D2z |1 "G"G3 "D7"[Dd]3 :|2 "G"G3 [Gg]3 |]
L:1/4
M:2/2
Q:1/2=100
K:C
P:A
V:1
%%MIDI program 71     Clarinet
K:C
L:1/4
M:2/2
Q:1/2=100
|: c>B AB/c/ | G>F E2 | c>B A/B/c/e/ | dB/A/ G2 |\
f>e de/f/ | ec-cE |1 FA G>F | G4 :|2 FA c>B | c3 B/A/ || [K: G]
V:2 treble
%%MIDI program 71     Clarinet
K:C
L:1/4
M:2/2
Q:1/2=100
|: !p! [EGc]2 [CFA]2 | [DFB]2 [EGc]2 | [EAc]2 [C^FAc]2 | [DGB]3 [CEG] |\
[DFA]3 [DFA] | [CEA]3 [CEA] |1 [DFA]2 [DFA]2 | [DFB]2 [FA][GB] :|2 [DFA]2 [DFB]2 | [EGc]4 ||
V:3 bass octave=-2
K:C
%%MIDI program 70     Bassoon
%%MIDI gchordoff
|: !mf! "C"c2 "F"f2 | "G7"g2 "C"cB | "Am"A2 "D7"^F2 | "G"G2 Bc |\
"Dm"d2 f2 | "Am"a2 A2 |1 "Dm"DA d2 | "G"Gd g2 :|2 "Dm"D2 "G7"G2 | "C"cg c'C ||
P:B
Q:3/8=112
V:1
L:1/8
M:6/8
Q:3/8=112
K:G
|: G2G B2G | d3 zcB | A2A c2A | e3 zdc |\
B2d GAB | A2c EFG | FGA DEF |1 GBe d BA :|2 G3 z3 |]
V:2
L:1/8
M:6/8
K:G
|: !mp! [B,DG]2[B,DG] z2[B,DG] | z2[B,DG] z2[B,DG] | [CEA]2[CEA] z2[CEA] | z2[CDFA] z2[CDFA] |\
z2[B,DG] z2[B,DG] | z2[CEA] z2[CEA] | z2[CDFA] z2[CDFA] |1 [B,DG]3 [CDFA]z2 :|2 [B,DG]3 [B,DG]3 |]
V:3
L:1/8
M:6/8
K:G
|: "G"G2z F2z | "/"E2z D2z | "Am"A2z G2z | "D7"F2z D2z |\
"G"G2z d2z | "Am"A2z e2z | "D7"d2z D2z |1 "G"G3 "D7"[Dd]3 :|2 "G"G3 [Gg]3 |]
L:1/4
M:2/2
Q:1/2=100
K:C
V:1
P:A
L:1/4
M:2/2
Q:1/2=100
K:C
|: c>B AB/c/ | G>F E2 | c>B A/B/c/e/ | dB/A/ G2 |\
f>e de/f/ | ec-cE |1 FA G>F | G4 :|2 FA c>B | c3 B/A/ || [K: G]
V:2 treble
L:1/4
M:2/2
Q:1/2=100
K:C
%%MIDI program 71     Clarinet
|: !p! [EGc]2 [CFA]2 | [DFB]2 [EGc]2 | [EAc]2 [C^FAc]2 | [DGB]3 [CEG] |\
[DFA]3 [DFA] | [CEA]3 [CEA] |1 [DFA]2 [DFA]2 | [DFB]2 [FA][GB] :|2 [DFA]2 [DFB]2 | [EGc]4 ||
V:3 bass octave=-2
L:1/4
Q:1/2=100
%%MIDI program 70     Bassoon
%%MIDI gchordoff
|: "C"c2 "F"f2 | "G7"g2 "C"cB | "Am"A2 "D7"^F2 | "G"G2 Bc |\
"Dm"d2 f2 | "Am"a2 A2 |1 "Dm"DA d2 | "G"Gd g2 :|2 "Dm"D2 "G7"G2 | "C"cg c'C ||
P:B
Q:3/8=112
V:1
L:1/8
M:6/8
Q:3/8=112
K:G
|: G2G B2G | d3 zcB | A2A c2A | e3 zdc |\
B2d GAB | A2c EFG | FGA DEF |1 GBe d BA :|2 G3 z3 |]
V:2
L:1/8
M:6/8
K:G
|: !mp! [B,DG]2[B,DG] z2[B,DG] | z2[B,DG] z2[B,DG] | [CEA]2[CEA] z2[CEA] | z2[CDFA] z2[CDFA] |\
z2[B,DG] z2[B,DG] | z2[CEA] z2[CEA] | z2[CDFA] z2[CDFA] |1 [B,DG]3 [CDFA]z2 :|2 [B,DG]3 [B,DB]3 |]
V:3
L:1/8
M:6/8
K:G
|: "G"G2z F2z | "/"E2z D2z | "Am"A2z G2z | "D7"F2z D2z |\
"G"G2z d2z | "Am"A2z e2z | "D7"d2z D2z |1 "G"G3 "D7"[Dd]3 :|2 "G"G3 [Gg]3 |]
L:1/4
M:2/2
Q:1/2=100
K:C
P:A
V:1
L:1/4
M:2/2
Q:1/2=100
K:C
|: c>B AB/c/ | G>F E2 | c>B A/B/c/e/ | dB/A/ G2 |\
f>e de/f/ | ec-cE |1 FA G>F | G4 :|2 FA c>B | c3 B/A/ || [K: G]
V:2 treble
L:1/4
M:2/2
Q:1/2=100
K:C
|: !p! [EGc]2 [CFA]2 | [DFB]2 [EGc]2 | [EAc]2 [C^FAc]2 | [DGB]3 [CEG] |\
[DFA]3 [DFA] | [CEA]3 [CEA] |1 [DFA]2 [DFA]2 | [DFB]2 [FA][GB] :|2 [DFA]2 [DFB]2 | [EGc]4 ||
V:3 bass octave=-2
L:1/4
M:2/2
Q:1/2=100
%%MIDI program 70     Bassoon
%%MIDI gchordoff
|: "C"c2 "F"f2 | "G7"g2 "C"cB | "Am"A2 "D7"^F2 | "G"G2 Bc |\
"Dm"d2 f2 | "Am"a2 A2 |1 "Dm"DA d2 | "G"Gd g2 :|2 "Dm"D2 "G7"G2 | "C"cg c'C ||
P:B
Q:3/8=112
V:1
L:1/8
M:6/8
Q:3/8=112
K:G
|: G2G B2G | d3 zcB | A2A c2A | e3 zdc |\
B2d GAB | A2c EFG |1 FGA DEF | GBe d BA :|2 [Q:3/8=104] FGA def |\
[Q:3/8=98] g2z z3 | G6- | G3 |]
V:2
L:1/8
M:6/8
K:G
|: !mp! [B,DG]2[B,DG] z2[B,DG] | z2[B,DG] z2[B,DG] | [CEA]2[CEA] z2[CEA] | z2[CDFA] z2[CDFA] |\
z2[B,DG] z2[B,DG] | z2[CEA] z2[CEA] |1 z2[CDFA] z2[CDFA] | [B,DG]3 [CDFA]z2 :|2 z2[CDFA] z2[CDFA] |[B,DG]z2 z3 |[DGB]6- |[DGB]3 |]
V:3
L:1/8
M:6/8
K:G
|: "G"G2z F2z | "/"E2z D2z | "Am"A2z G2z | "D7"F2z D2z |\
"G"G2z d2z | "Am"A2z e2z |1 "D7"d2z D2z | "G"G3 "D7"[Dd]3 :|2 "D7"d2z D2z | "G"Gz2 [D]z2 |[G,G]6- |[G,G]3 |]

